public/svg/profiles/dailymotion.svg

<?xml version="1.0" encoding="UTF-8" standalone="no"?>
<svg width="50px" height="50px" viewBox="0 0 50 50" version="1.1" xmlns="http://www.w3.org/2000/svg" xmlns:xlink="http://www.w3.org/1999/xlink">
    <defs></defs>
    <g stroke="none" stroke-width="1" fill="none" fill-rule="evenodd">
        <g>
            <g>
                <path d="M50,25 C50,38.8065789 38.8065789,50 25,50 C11.1934211,50 0,38.8065789 0,25 C0,11.1934211 11.1934211,0 25,0 C38.8065789,0 50,11.1934211 50,25 L50,25 Z" id="Shape" fill="#0066DC"></path>
                <path d="M31.7894737,14.5092105 L27.4171053,15.4302632 L27.4171053,22.0131579 C26.4210526,20.7197368 25.0355263,20.0986842 23.2368421,20.0986842 C21.3552632,20.0986842 19.6657895,20.8013158 18.2815789,22.1802632 C16.7315789,23.7 15.9026316,25.6407895 15.9026316,27.8065789 C15.9026316,30.1697368 16.7868421,32.1947368 18.5039474,33.7434211 C19.8065789,34.925 21.3552632,35.5144737 23.1539474,35.5144737 C24.9236842,35.5144737 26.2526316,35.0368421 27.5526316,33.7447368 L27.5526316,35.4342105 L31.7894737,35.4342105 L31.7894737,14.5078947 L31.7894737,14.5092105 Z M24.125,31.4960526 C21.8828947,31.4960526 20.2763158,29.8907895 20.2763158,27.7815789 C20.2763158,25.7552632 21.8815789,24.0381579 23.9578947,24.0381579 C26.0052632,24.0381579 27.5842105,25.6697368 27.5842105,27.8368421 C27.5842105,29.9157895 26.0052632,31.4947368 24.1236842,31.4947368 L24.125,31.4960526 Z" id="Shape" fill="#FFFFFF"></path>
            </g>
        </g>
    </g>
</svg>

<svg width="50" height="50" viewBox="0 0 50 50" xmlns="http://www.w3.org/2000/svg"><g fill="none" fill-rule="evenodd"><path d="M50 25c0 13.807-11.193 25-25 25S0 38.807 0 25 11.193 0 25 0s25 11.193 25 25z" fill="#0066DC"/><path d="M31.79 14.51l-4.373.92v6.583c-.996-1.293-2.38-1.914-4.18-1.914-1.882 0-3.57.7-4.955 2.08-1.55 1.52-2.38 3.46-2.38 5.627 0 2.363.885 4.388 2.602 5.936 1.303 1.182 2.85 1.77 4.65 1.77 1.77 0 3.1-.476 4.4-1.768v1.69h4.235V14.507zm-7.665 16.986c-2.242 0-3.85-1.605-3.85-3.714 0-2.027 1.607-3.744 3.683-3.744 2.047 0 3.626 1.632 3.626 3.8 0 2.078-1.58 3.657-3.46 3.657z" fill="#FFF"/></g></svg>
